X: 54
T:Suky bids Me. WCl.54
M:C|
L:1/8
Q:200
S:William Clarke MS,Lincoln,1770.
R:reel
O:Lincoln
A:England
Z:vmp.Barry Callaghan
K:G
G2DEG2e2|dBAG AFED|G2DEG2e2|dBcA G4:|!
|:d2 Bcd2g2|fgfd ege^c|d2 Bc d2g2|fae^c d4|!
dgfe dcBA|B2 BG AFED|G2DEG2e2|dBcA G4:|]
